X: 1
T: Coburg, The
M: 3/4
L: 1/8
R: mazurka
K: Dmaj
|: (3ABc |\
d2 d>A d>e | f2 f2 e>d | c>e g>e (3cde | d>f A2 (3ABc |
d2 d>A d>e | f2 f2 e>d | c>e g>e c>e | d2 D2 :|
|: A>G |\ 
F2 F>D F>G | A2 A>d F>G | E2 E>F G>A | G2 F>D A>G |
(3FGF (3FED F>d | B2 (3AGF E>D | E2 E>^D E>F | D2- D>B :|
|: A>c |\ 
d2 d2 (3cde | f2 a2 f2 | b>g c>e A>g | f>d a>f A>c |
d2 d>c d>e | f2 a2 (3fed | b>g c>e A>c | d4 :|
